X: 1
T: Saint Anne's Reel
C: Trad
R: Reel
M: 4/4
L: 1/8
K: D
Z: ABC transcription by Verge Roller
r: 32
|: de | "D" fedf "A" edcB | "D" A2 FA DAFA | "G" B2 GB EBGB | "D" A2 FA DAFA |
"D" fedf "A" edcB | "D" A2 FA DAFA | "G" B2 ed "A" cABc | "D" eddc d2 :|
|: de | "D" f2 fe fedc | "G" Bggf g2 gf | "A"edcB ABce | "D"baa^g ~a2 a=g |
"D" f2 fe fedc | "G" Bggf g2 gf | "A" edcB ABcd | "D" eddc d2 :|
